X: 7
T: Tam Lin
R: reel
M: 4/4
L: 1/8
K: Emin
F2 BF dFBF|G2 BG dGBG|A2 cA eAcA|dcBA FBBA| F2 BF dFBF|G2 BG dGBG|A2 cA eAcA|dcBA FB B2:||bf ~f2 dfBf|Bf ~f2 dfBf|ae ~e2 ce ~e2|ae ~e2 abc'a|bf ~f2 dfBf|Bf ~f2 dfBF|~G3 F GABc|dBcA FB B2:||B2 eB gBeB|c2 ec gcec|d2 fd adfd|gfed Beed|B2 eB gBeB|c2 ec gcec|d2 fd adfd| gfed Be e2:||eB ~B2 GBEB|eB ~B2 GBEB|dA ~A2 FA ~A2|dA ~A2 defd|eB ~B2 GBEB|eB ~B2 GBEB|~c3 B cdef|gefd Be e2:||


Tune 248	Setting 12962

